icons/alcohol_cessation.svg

<svg width="48" height="48" viewBox="0 0 48 48" fill="none" xmlns="http://www.w3.org/2000/svg">
<path fill-rule="evenodd" clip-rule="evenodd" d="M24 42C33.9411 42 42 33.9411 42 24C42 14.0589 33.9411 6 24 6C14.0589 6 6 14.0589 6 24C6 33.9411 14.0589 42 24 42ZM24 44C35.0457 44 44 35.0457 44 24C44 12.9543 35.0457 4 24 4C12.9543 4 4 12.9543 4 24C4 35.0457 12.9543 44 24 44Z" fill="black"/>
<path fill-rule="evenodd" clip-rule="evenodd" d="M10.2929 9.79289C10.6834 9.40237 11.3166 9.40237 11.7071 9.79289L19.2071 17.2929C19.5976 17.6834 19.5976 18.3166 19.2071 18.7071C18.8166 19.0976 18.1834 19.0976 17.7929 18.7071L10.2929 11.2071C9.90237 10.8166 9.90237 10.1834 10.2929 9.79289Z" fill="black"/>
<path fill-rule="evenodd" clip-rule="evenodd" d="M27.2929 27.2929C27.6834 26.9024 28.3166 26.9024 28.7071 27.2929L38.7071 37.2929L37.2929 38.7071L27.2929 28.7071C26.9024 28.3166 26.9024 27.6834 27.2929 27.2929Z" fill="black"/>
<path fill-rule="evenodd" clip-rule="evenodd" d="M27 26V31H21V26H27ZM21.1904 24H26.4726C26.3571 22.6862 26.0553 21.7754 25.2922 21.0275C24.8152 20.5601 24.5399 19.9175 24.5399 19.2391V12H23.5106V19.2271C23.5106 19.9504 23.1969 20.6295 22.6643 21.0992C21.8309 21.8343 21.4023 22.765 21.1904 24ZM21.3415 19.5991C21.4491 19.5042 21.5105 19.369 21.5105 19.2271V10.7C21.5105 10.3134 21.8303 10 22.2248 10H25.8256C26.2201 10 26.5399 10.3134 26.5399 10.7V19.2391C26.5399 19.3741 26.5946 19.5036 26.692 19.5991C27.9521 20.834 28.3558 22.3517 28.4834 24C28.5336 24.6495 28.541 25.3193 28.5411 26C28.5411 26.1406 28.5408 26.2817 28.5405 26.4232C28.5402 26.5631 28.5399 26.7033 28.5399 26.8439L29 36.3504C29 37.2615 28.2464 38 27.3168 38H20.5773C19.7061 38 19 37.308 19 36.4543V27.0859C19 26.7213 19.0029 26.3588 19.0124 26C19.0305 25.3171 19.0726 24.6472 19.1649 24C19.4038 22.3243 19.9786 20.8011 21.3415 19.5991ZM26.9807 36L26.8355 33H21V36H26.9807Z" fill="black"/>
</svg>

<svg
  xmlns="http://www.w3.org/2000/svg"
  width="24"
  height="24"
  viewBox="0 0 24 24"
  fill="none"
  stroke="currentColor"
  stroke-width="2"
  stroke-linecap="round"
  stroke-linejoin="round"
>
  <path
    fill-rule="evenodd"
    d="M24 42c9.941 0 18-8.059 18-18S33.941 6 24 6 6 14.059 6 24s8.059 18 18 18m0 2c11.046 0 20-8.954 20-20S35.046 4 24 4 4 12.954 4 24s8.954 20 20 20"
    clip-rule="evenodd"
  />
  <path
    fill-rule="evenodd"
    d="M10.293 9.793a1 1 0 0 1 1.414 0l7.5 7.5a1 1 0 0 1-1.414 1.414l-7.5-7.5a1 1 0 0 1 0-1.414"
    clip-rule="evenodd"
  />
  <path
    fill-rule="evenodd"
    d="M27.293 27.293a1 1 0 0 1 1.414 0l10 10-1.414 1.414-10-10a1 1 0 0 1 0-1.414"
    clip-rule="evenodd"
  />
  <path
    fill-rule="evenodd"
    d="M27 26v5h-6v-5zm-5.81-2h5.283c-.116-1.314-.418-2.225-1.18-2.972a2.5 2.5 0 0 1-.753-1.789V12h-1.03v7.227c0 .723-.313 1.402-.846 1.872-.833.735-1.262 1.666-1.474 2.901m.151-4.4a.5.5 0 0 0 .17-.373V10.7c0-.387.32-.7.714-.7h3.6c.395 0 .715.313.715.7v8.54c0 .134.055.264.152.36 1.26 1.234 1.664 2.752 1.791 4.4.05.65.058 1.32.058 2v.423l-.001.42.46 9.507c0 .911-.754 1.65-1.683 1.65h-6.74c-.87 0-1.577-.692-1.577-1.546v-9.368q0-.547.012-1.086c.018-.683.06-1.353.153-2 .239-1.676.814-3.199 2.177-4.4m5.64 16.4-.146-3H21v3z"
    clip-rule="evenodd"
  />
</svg>
